src/pos-icons/diamond-outline.svg

<svg height="24" viewBox="0 0 24 24" width="24" xmlns="http://www.w3.org/2000/svg"><path d="m18 2h-12l-4 6 10 14 10-14zm-13.57 6 2.64-4h9.86l2.64 4-7.57 10.56z"/></svg>

<?xml version="1.0" encoding="UTF-8"?><!DOCTYPE svg PUBLIC "-//W3C//DTD SVG 1.1//EN" "http://www.w3.org/Graphics/SVG/1.1/DTD/svg11.dtd"><svg xmlns="http://www.w3.org/2000/svg" xmlns:xlink="http://www.w3.org/1999/xlink" version="1.1" id="mdi-diamond-outline" width="24" height="24" viewBox="0 0 24 24"><path d="M18,2H6L2,8L12,22L22,8L18,2M4.43,8L7.07,4H16.93L19.57,8L12,18.56L4.43,8Z" /></svg>
